symbols/web/no_drinks/materialsymbolssharp/no_drinks_wght300fill1_20px.svg

<svg xmlns="http://www.w3.org/2000/svg" height="20" width="20"><path d="m2.667 2.667 14.645 14.666-.937.938-5.708-5.709v3.396h3.916v1.334H5.417v-1.334h3.916v-4.583l-1.187-1.354-6.417-6.417Zm2.687.25h11.584V4.25l-4.813 5.458-3.792-3.812h5.396l1.479-1.646h-8.52Z"/></svg>

<svg xmlns="http://www.w3.org/2000/svg" height="20" width="20"><path d="M5.417 17.292V15.958H9.333V11.375L8.146 10.021L1.729 3.604L2.667 2.667L17.312 17.333L16.375 18.271L10.667 12.562V15.958H14.583V17.292ZM12.125 9.708 8.333 5.896H13.729L15.208 4.25H6.688L5.354 2.917H16.938V4.25Z"/></svg>
